X: 1
T: Both Meat And Drink
M: 6/8
L: 1/8
R: jig
K: Dmaj
K: Dmaj
|: A,DF A^GA | BAF GEC | DFA dcd | fed cec |
dBd cAc | BGB dcB |c^Bc edc | dAF GEC :|
|: dcd dcd |AFD DCD |=cBc cBc |edc Aec |
dcd fed | cec dAF | GED CDE | EDC D3 :|
K:Gmaj
|: DGB d^cd | edB cAF | GBd gfg | bag faf |
geg fdf | ece gfe | f^ef agf | gdB CBF :|
|: gfg gfg | dBG GFG | =fef fef | agf daf |
gfg bag | faf gdB | CAG FGB | BGF G3 :|
